X: 5
T:Sarah Drummond of Perth. JMP.005
M:2/4
L:1/8
Q:300
C:"8...Strathspay"
S:John Miller MS. Perth, 1799.(for the fife)
R:Strathspey
O:Scotland
A:Perth
H:1799
Z:vmp.C. Graebe
K:G major
e | A/A/A ed | Bd e2 | dg Bg | dg dB |!
 A/A/A ed | Bd ea | ge gB| A2 A :|!
|:a | a2 ea | caea | g2 dg | Bgdg |!
 a2 ea | caea | gfgB | A2 A :|]
